; generated by PrusaSlicer 2.8.1+win64 on 2024-12-04 at 16:50:29 UTC


;
;
; 

; external perimeters extrusion width = 0.45mm
; perimeters extrusion width = 0.45mm
; infill extrusion width = 0.45mm
; solid infill extrusion width = 0.45mm
; top infill extrusion width = 0.40mm
; first layer extrusion width = 0.42mm

; external perimeters extrusion width = 0.45mm
; perimeters extrusion width = 0.45mm
; infill extrusion width = 0.45mm
; solid infill extrusion width = 0.45mm
; top infill extrusion width = 0.40mm
; first layer extrusion width = 0.42mm

; external perimeters extrusion width = 0.45mm
; perimeters extrusion width = 0.45mm
; infill extrusion width = 0.45mm
; solid infill extrusion width = 0.45mm
; top infill extrusion width = 0.40mm
; first layer extrusion width = 0.42mm

; external perimeters extrusion width = 0.45mm
; perimeters extrusion width = 0.45mm
; infill extrusion width = 0.45mm
; solid infill extrusion width = 0.45mm
; top infill extrusion width = 0.40mm
; first layer extrusion width = 0.42mm

M73 P0 R66
M73 Q0 S66
M201 X1000 Y1000 Z200 E5000 ; sets maximum accelerations, mm/sec^2
M203 X200 Y200 Z12 E120 ; sets maximum feedrates, mm / sec
M204 S1250 T1250 ; sets acceleration (S) and retract acceleration (R), mm/sec^2
M205 X8.00 Y8.00 Z0.40 E4.50 ; sets the jerk limits, mm/sec
M205 S0 T0 ; sets the minimum extruding and travel feed rate, mm/sec

; printing object IMU LiPo Final 2.stl id:2 copy 0
; stop printing object IMU LiPo Final 2.stl id:2 copy 0
; printing object IMU LiPo Final 3.stl id:1 copy 0
; stop printing object IMU LiPo Final 3.stl id:1 copy 0
; printing object IMU LiPo Final 1.stl id:3 copy 0
; stop printing object IMU LiPo Final 1.stl id:3 copy 0
; printing object IMU LiPo Final 4.stl id:0 copy 0
; stop printing object IMU LiPo Final 4.stl id:0 copy 0

;TYPE:Custom
M862.3 P "MK3S" ; printer model check
M862.1 P0.4 ; nozzle diameter check
M115 U3.14.0 ; tell printer latest fw version
G90 ; use absolute coordinates
M83 ; extruder relative mode
M104 S215 ; set extruder temp
M140 S60 ; set bed temp
M190 S60 ; wait for bed temp
M109 S215 ; wait for extruder temp
G28 W ; home all without mesh bed level
G80 X91.582 Y60.1977 W66.8359 H89.8972 ; mesh bed levelling

G1 Z0.2 F720
G1 Y-3 F1000 ; go outside print area
G92 E0
G1 X60 E9 F1000 ; intro line
G1 X100 E12.5 F1000 ; intro line

G92 E0
M221 S95

; Don't change E values below. Excessive value can damage the printer.
M907 E430 ; set extruder motor current
G21 ; set units to millimeters
G90 ; use absolute coordinates
M83 ; use relative distances for extrusion

M900 K0.05 ; Filament gcode LA 1.5
M900 K30 ; Filament gcode LA 1.0




M107
;LAYER_CHANGE
;Z:0.2
;HEIGHT:0.2
G1 E-.8 F2100
G1 Z.6 F720
G1 X102.218 Y64.933 F10800
G1 Z.2 F720
M73 P0 R65
G1 E.8 F2100
M204 S800
;TYPE:Skirt/Brim
;WIDTH:0.42
G1 F1200
G1 X102.976 Y63.867 E.04101
G1 X104.148 Y63.428 E.03924
G1 X148.068 Y60.391 E1.38037
G1 X154.119 Y60.386 E.18972
G1 X155.367 Y60.777 E.04101
G1 X156.304 Y62.446 E.06001
G1 X158.229 Y95.244 E1.03013
G1 X158.229 Y145.615 E1.57935
G1 X157.839 Y146.863 E.041
G1 X156.806 Y147.665 E.041
G1 X156.119 Y147.802 E.02196
G1 X97.037 Y149.905 E1.85365
G1 X93.959 Y149.906 E.09651
G1 X92.711 Y149.515 E.04101
G1 X91.909 Y148.482 E.041
G1 X91.771 Y147.718 E.02434
G1 X91.771 Y97.347 E1.57935
G1 X91.878 Y96.669 E.02152
G1 X102.199 Y64.99 E1.04466
M204 S1000
;WIPE_START
G1 F8640
G1 X102.218 Y64.933 E-.01387
G1 X102.976 Y63.867 E-.30203
G1 X104.148 Y63.428 E-.28898
G1 X104.991 Y63.37 E-.19512
;WIPE_END
G1 Z.6 F720
; printing object IMU LiPo Final 2.stl id:2 copy 0
G1 X118.561 Y133.734 F10800
G1 Z.2 F720
G1 E.8 F2100
M204 S800
;TYPE:Perimeter
;WIDTH:0.419999
G1 F1200
G1 X119.034 Y133.636 E.01515
G1 X119.604 Y133.594 E.01792
G1 X120.174 Y133.626 E.0179
G1 X120.736 Y133.733 E.01794
G1 X121.279 Y133.912 E.01793
G1 X121.793 Y134.16 E.01789
G1 X122.271 Y134.474 E.01793
G1 X122.704 Y134.847 E.01792
G1 X123.084 Y135.273 E.0179
G1 X123.406 Y135.746 E.01794
G1 X123.663 Y136.256 E.01791
G1 X123.851 Y136.796 E.01793
G1 X123.967 Y137.355 E.0179
G1 X124.009 Y137.925 E.01792
G1 X123.977 Y138.495 E.0179
G1 X123.87 Y139.057 E.01794
G1 X123.691 Y139.6 E.01793
G1 X123.443 Y140.114 E.01789
G1 X123.129 Y140.592 E.01793
G1 X122.756 Y141.025 E.01792
G1 X122.33 Y141.405 E.0179
G1 X121.857 Y141.727 E.01794
G1 X121.347 Y141.984 E.01791
G1 X120.807 Y142.172 E.01793
G1 X120.248 Y142.288 E.0179
G1 X119.678 Y142.33 E.01792
G1 X119.107 Y142.298 E.01793
G1 X118.546 Y142.191 E.01791
G1 X118.003 Y142.012 E.01793
G1 X117.489 Y141.764 E.01789
G1 X117.011 Y141.45 E.01793
G1 X116.578 Y141.077 E.01792
G1 X116.198 Y140.651 E.0179
G1 X115.876 Y140.178 E.01794
G1 X115.619 Y139.668 E.01791
G1 X115.431 Y139.128 E.01793
G1 X115.315 Y138.569 E.0179
G1 X115.273 Y137.999 E.01792
G1 X115.305 Y137.428 E.01793
G1 X115.412 Y136.867 E.01791
G1 X115.591 Y136.324 E.01793
G1 X115.839 Y135.81 E.01789
G1 X116.153 Y135.332 E.01793
G1 X116.526 Y134.899 E.01792
G1 X116.952 Y134.519 E.0179
G1 X117.425 Y134.197 E.01794
G1 X117.935 Y133.94 E.01791
G1 X118.475 Y133.752 E.01793
G1 X118.502 Y133.746 E.00087
M204 S1000
G1 X118.502 Y133.746 F10800
G1 X118.634 Y134.101
M204 S800
;TYPE:External perimeter
G1 F1200
G1 X119.108 Y134.006 E.01516
G1 X119.629 Y133.97 E.01637
G1 X120.15 Y134.002 E.01637
G1 X120.662 Y134.103 E.01636
G1 X121.157 Y134.269 E.01637
G1 X121.626 Y134.499 E.01638
G1 X122.061 Y134.787 E.01636
G1 X122.455 Y135.13 E.01638
G1 X122.801 Y135.522 E.01639
G1 X123.092 Y135.955 E.01636
G1 X123.324 Y136.423 E.01638
G1 X123.494 Y136.917 E.01638
G1 X123.597 Y137.429 E.01637
G1 X123.633 Y137.95 E.01637
G1 X123.601 Y138.471 E.01637
G1 X123.5 Y138.983 E.01636
G1 X123.334 Y139.478 E.01637
G1 X123.104 Y139.947 E.01638
G1 X122.816 Y140.382 E.01636
G1 X122.473 Y140.776 E.01638
G1 X122.081 Y141.122 E.01639
G1 X121.648 Y141.413 E.01636
G1 X121.18 Y141.645 E.01638
G1 X120.686 Y141.815 E.01638
G1 X120.174 Y141.918 E.01637
G1 X119.653 Y141.954 E.01637
G1 X119.132 Y141.922 E.01637
G1 X118.62 Y141.821 E.01636
G1 X118.125 Y141.655 E.01637
G1 X117.656 Y141.425 E.01638
G1 X117.221 Y141.137 E.01636
G1 X116.827 Y140.794 E.01638
G1 X116.481 Y140.402 E.01639
G1 X116.19 Y139.969 E.01636
G1 X115.957 Y139.501 E.01639
G1 X115.788 Y139.007 E.01637
G1 X115.685 Y138.495 E.01637
G1 X115.649 Y137.974 E.01637
G1 X115.681 Y137.453 E.01637
G1 X115.782 Y136.941 E.01636
G1 X115.948 Y136.446 E.01637
G1 X116.178 Y135.977 E.01638
G1 X116.466 Y135.542 E.01636
G1 X116.809 Y135.148 E.01638
G1 X117.201 Y134.802 E.01639
G1 X117.634 Y134.511 E.01636
G1 X118.102 Y134.278 E.01639
G1 X118.576 Y134.116 E.01571
M204 S1000
;WIPE_START
G1 F8640
G1 X118.634 Y134.101 E-.01383
G1 X119.108 Y134.006 E-.11162
G1 X119.629 Y133.97 E-.12059
G1 X120.15 Y134.002 E-.12053
G1 X120.662 Y134.103 E-.1205
G1 X121.157 Y134.269 E-.12055
G1 X121.626 Y134.499 E-.12061
G1 X121.885 Y134.671 E-.07177
;WIPE_END
G1 Z.6 F720
G1 X96.393 Y131.239 F10800
G1 Z.2 F720
G1 E.8 F2100
M204 S800
;TYPE:Perimeter
;WIDTH:0.467729
G1 F1200
G1 X96.44 Y131.283 E.00227
;WIDTH:0.515459
G1 X96.683 Y131.504 E.01291
G1 X96.738 Y131.506 E.00216
;WIDTH:0.547143
G1 X97.494 Y131.522 E.0317
;WIDTH:0.57529
G1 X97.832 Y131.536 E.01497
;WIDTH:0.603437
G1 X98.17 Y131.55 E.01577
G1 X98.231 Y131.536 E.00292
;WIDTH:0.575512
G1 X98.291 Y131.522 E.00273
;WIDTH:0.547587
G1 X98.503 Y131.501 E.00894
;WIDTH:0.505058
G1 X98.714 Y131.48 E.00815
;WIDTH:0.462529
G1 X98.925 Y131.458 E.0074
;WIDTH:0.419999
G1 X155.254 Y131.458 E1.76615
G1 X155.254 Y137.962 E.20393
G1 X155.254 Y144.466 E.20393
G1 X98.454 Y144.466 E1.78092
;WIDTH:0.464557
G1 X98.166 Y144.443 E.01013
;WIDTH:0.509115
G1 X97.878 Y144.421 E.0112
;WIDTH:0.553673
G1 X97.589 Y144.399 E.01231
G1 X96.634 Y144.425 E.04057
;WIDTH:0.520015
G1 X96.488 Y144.57 E.00816
;WIDTH:0.486677
G1 X96.343 Y144.716 E.00759
;WIDTH:0.453338
G1 X96.198 Y144.862 E.00702
;WIDTH:0.419999
G1 X96.172 Y145.031 E.00536
G1 X96.172 Y146.514 E.0465
G1 X94.746 Y146.514 E.04471
G1 X94.746 Y143.893 E.08218
G1 X95.492 Y143.896 E.02339
;WIDTH:0.453338
G1 X95.86 Y143.915 E.01258
;WIDTH:0.486677
G1 X96.227 Y143.933 E.01356
;WIDTH:0.520015
G1 X96.72 Y143.946 E.01956
;WIDTH:0.550112
G1 X97.635 Y143.877 E.0387
G1 X97.907 Y143.798 E.01195
;WIDTH:0.506741
G1 X98.178 Y143.719 E.01089
;WIDTH:0.46337
G1 X98.449 Y143.64 E.00987
;WIDTH:0.419999
G1 X99.003 Y143.439 E.01848
G1 X99.485 Y143.19 E.01701
G1 X100.129 Y142.673 E.02589
G1 X100.474 Y142.147 E.01972
G1 X100.622 Y141.551 E.01925
G1 X100.622 Y134.372 E.22509
G1 X100.508 Y133.856 E.01657
G1 X100.227 Y133.372 E.01755
G1 X99.866 Y133.005 E.01614
G1 X99.386 Y132.677 E.01823
G1 X98.786 Y132.397 E.02076
;WIDTH:0.465859
G1 X98.62 Y132.325 E.00636
;WIDTH:0.511718
G1 X98.455 Y132.252 E.00703
;WIDTH:0.557578
G1 X98.289 Y132.179 E.00776
;WIDTH:0.603437
G1 X98.124 Y132.107 E.00839
G1 X97.761 Y132.062 E.01705
;WIDTH:0.572957
G1 X97.398 Y132.018 E.01612
;WIDTH:0.542476
G1 X96.662 Y131.975 E.03062
;WIDTH:0.515459
G1 X96.077 Y132.001 E.02301
;WIDTH:0.467729
G1 X95.492 Y132.028 E.02069
;WIDTH:0.419999
G1 X94.746 Y132.031 E.02339
G1 X94.746 Y129.41 E.08218
G1 X96.172 Y129.41 E.04471
G1 X96.198 Y131.062 E.0518
;WIDTH:0.467729
G1 X96.348 Y131.199 E.00718
M204 S1000
G1 X96.348 Y131.199 F10800
G1 X96.638 Y130.998
M204 S800
;TYPE:External perimeter
;WIDTH:0.419999
G1 F1200
G1 X96.737 Y131.081 E.00405
G1 X155.631 Y131.081 E1.84658
G1 X155.631 Y137.962 E.21575
G1 X155.631 Y144.843 E.21575
M73 Q0 S65
G1 X96.741 Y144.843 E1.84645
G1 X96.558 Y144.975 E.00707
M73 P1 R65
M73 Q1 S65
G1 X96.549 Y145.031 E.00178
G1 X96.549 Y146.891 E.05832
G1 X94.369 Y146.891 E.06835
G1 X94.375 Y143.515 E.10585
G1 X96.682 Y143.523 E.07233
G1 X97.547 Y143.444 E.02723
G1 X98.323 Y143.284 E.02484
G1 X98.815 Y143.11 E.01636
G1 X99.257 Y142.889 E.01549
G1 X99.789 Y142.486 E.02093
G1 X100.111 Y142.044 E.01715
G1 X100.245 Y141.551 E.01602
G1 X100.245 Y134.372 E.22509
G1 X100.193 Y134.084 E.00918
G1 X99.957 Y133.636 E.01588
G1 X99.597 Y133.269 E.01612
G1 X99.223 Y133.017 E.01414
G1 X98.677 Y132.758 E.01895
G1 X98.046 Y132.569 E.02065
G1 X97.363 Y132.455 E.02171
G1 X96.664 Y132.4 E.02198
G1 X94.412 Y132.409 E.07061
G1 X94.369 Y132.37 E.00182
G1 X94.369 Y129.033 E.10463
G1 X96.549 Y129.033 E.06835
G1 X96.552 Y130.925 E.05932
G1 X96.592 Y130.959 E.00165
M204 S1000
;WIPE_START
G1 F8640
G1 X96.638 Y130.998 E-.01393
G1 X96.737 Y131.081 E-.02983
G1 X100.012 Y131.081 E-.75624
;WIPE_END
G1 Z.6 F720
G1 X95.179 Y129.58 F10800
G1 Z.2 F720
G1 E.8 F2100
M204 S800
;TYPE:Solid infill
;WIDTH:0.448614
G1 F1200
G1 X95.833 Y130.233 E.03118
G1 X95.833 Y130.807 E.01936
G1 X95.086 Y130.06 E.03564
G1 X95.086 Y130.633 E.01933
G1 X96.089 Y131.636 E.04785
G1 X95.56 Y131.682 E.01791
G1 X94.916 Y131.037 E.03075
M204 S1000
;WIPE_START
G1 F8640
G1 X95.56 Y131.682 E-.21046
G1 X96.089 Y131.636 E-.12261
G1 X95.086 Y130.633 E-.32753
G1 X95.086 Y130.06 E-.13231
G1 X95.108 Y130.082 E-.00709
;WIPE_END
G1 Z.6 F720
G1 X95.752 Y144.091 F10800
G1 Z.2 F720
G1 E.8 F2100
M204 S800
;WIDTH:0.444995
G1 F1200
G1 X96.128 Y144.467 E.01778
G1 X95.876 Y144.737 E.01235
G1 X95.87 Y144.777 E.00135
G1 X95.328 Y144.235 E.02563
G1 X95.086 Y144.234 E.00809
G1 X95.086 Y144.562 E.01097
G1 X95.833 Y145.309 E.03532
G1 X95.833 Y145.877 E.01899
G1 X95.086 Y145.13 E.03532
G1 X95.086 Y145.699 E.01902
G1 X95.731 Y146.344 E.0305
M204 S1000
;WIPE_START
G1 F8640
G1 X95.086 Y145.699 E-.21062
G1 X95.086 Y145.13 E-.13138
G1 X95.833 Y145.877 E-.24393
G1 X95.833 Y145.309 E-.13115
G1 X95.579 Y145.055 E-.08292
;WIPE_END
G1 Z.6 F720
G1 X154.317 Y131.628 F10800
G1 Z.2 F720
G1 E.8 F2100
M204 S800
;WIDTH:0.422493
G1 F1200
G1 X154.914 Y132.226 E.02667
G1 X154.914 Y132.763 E.01695
G1 X153.949 Y131.798 E.04307
G1 X153.413 Y131.798 E.01692
G1 X154.914 Y133.299 E.067
G1 X154.914 Y133.836 E.01695
G1 X152.876 Y131.798 E.09097
G1 X152.339 Y131.798 E.01695
G1 X154.914 Y134.373 E.11493
G1 X154.914 Y134.91 E.01695
G1 X151.802 Y131.798 E.1389
G1 X151.265 Y131.798 E.01695
G1 X154.914 Y135.447 E.16287
G1 X154.914 Y135.983 E.01692
G1 X150.729 Y131.798 E.1868
G1 X150.192 Y131.798 E.01695
G1 X154.914 Y136.52 E.21077
G1 X154.914 Y137.057 E.01695
G1 X149.655 Y131.798 E.23473
G1 X149.118 Y131.798 E.01695
G1 X154.914 Y137.594 E.2587
G1 X154.914 Y138.131 E.01695
G1 X148.581 Y131.798 E.28267
G1 X148.045 Y131.798 E.01692
G1 X154.914 Y138.667 E.3066
G1 X154.914 Y139.204 E.01695
G1 X147.508 Y131.798 E.33057
G1 X146.971 Y131.798 E.01695
G1 X154.914 Y139.741 E.35453
G1 X154.914 Y140.278 E.01695
G1 X146.434 Y131.798 E.3785
G1 X145.898 Y131.798 E.01692
G1 X154.914 Y140.815 E.40245
G1 X154.914 Y141.351 E.01692
G1 X145.361 Y131.798 E.4264
G1 X144.824 Y131.798 E.01695
G1 X154.914 Y141.888 E.45037
G1 X154.914 Y142.425 E.01695
G1 X144.287 Y131.798 E.47433
G1 X143.75 Y131.798 E.01695
G1 X154.914 Y142.962 E.4983
G1 X154.914 Y143.499 E.01695
G1 X143.214 Y131.798 E.52225
G1 X142.677 Y131.798 E.01695
G1 X154.914 Y144.035 E.5462
G1 X154.914 Y144.126 E.00287
G1 X154.469 Y144.126 E.01404
G1 X142.14 Y131.798 E.55028
G1 X141.603 Y131.798 E.01695
G1 X153.932 Y144.126 E.55028
G1 X153.395 Y144.126 E.01695
G1 X141.066 Y131.798 E.55028
G1 X140.53 Y131.798 E.01692
G1 X152.858 Y144.126 E.55026
G1 X152.322 Y144.126 E.01692
G1 X139.993 Y131.798 E.55028
G1 X139.456 Y131.798 E.01695
G1 X151.785 Y144.126 E.55028
G1 X151.248 Y144.126 E.01695
G1 X138.919 Y131.798 E.55028
G1 X138.382 Y131.798 E.01695
G1 X150.711 Y144.126 E.55028
G1 X150.174 Y144.126 E.01695
G1 X137.846 Y131.798 E.55026
G1 X137.309 Y131.798 E.01695
G1 X149.638 Y144.126 E.55028
G1 X149.101 Y144.126 E.01695
G1 X136.772 Y131.798 E.55028
G1 X136.235 Y131.798 E.01695
G1 X148.564 Y144.126 E.55028
G1 X148.027 Y144.126 E.01695
M73 P1 R64
G1 X135.698 Y131.798 E.55028
G1 X135.162 Y131.798 E.01692
G1 X147.49 Y144.126 E.55026
G1 X146.954 Y144.126 E.01692
G1 X134.625 Y131.798 E.55028
G1 X134.088 Y131.798 E.01695
G1 X146.417 Y144.126 E.55028
G1 X145.88 Y144.126 E.01695
G1 X133.551 Y131.798 E.55028
G1 X133.014 Y131.798 E.01695
G1 X145.343 Y144.126 E.55028
G1 X144.806 Y144.126 E.01695
G1 X132.478 Y131.798 E.55026
G1 X131.941 Y131.798 E.01695
G1 X144.27 Y144.126 E.55028
G1 X143.733 Y144.126 E.01695
G1 X131.404 Y131.798 E.55028
G1 X130.867 Y131.798 E.01695
G1 X143.196 Y144.126 E.55028
G1 X142.659 Y144.126 E.01695
G1 X130.33 Y131.798 E.55028
G1 X129.794 Y131.798 E.01692
G1 X142.122 Y144.126 E.55026
G1 X141.586 Y144.126 E.01692
G1 X129.257 Y131.798 E.55028
G1 X128.72 Y131.798 E.01695
G1 X141.049 Y144.126 E.55028
M73 Q2 S65
G1 X140.512 Y144.126 E.01695
M73 P2 R64
G1 X128.183 Y131.798 E.55028
G1 X127.646 Y131.798 E.01695
G1 X139.975 Y144.126 E.55028
G1 X139.438 Y144.126 E.01695
G1 X127.11 Y131.798 E.55026
G1 X126.573 Y131.798 E.01695
G1 X138.902 Y144.126 E.55028
G1 X138.365 Y144.126 E.01695
G1 X126.036 Y131.798 E.55028
G1 X125.499 Y131.798 E.01695
G1 X137.828 Y144.126 E.55028
G1 X137.291 Y144.126 E.01695
G1 X124.962 Y131.798 E.55028
G1 X124.426 Y131.798 E.01692
G1 X136.754 Y144.126 E.55026
G1 X136.218 Y144.126 E.01692
G1 X123.889 Y131.798 E.55028
G1 X123.352 Y131.798 E.01695
G1 X135.681 Y144.126 E.55028
G1 X135.144 Y144.126 E.01695
G1 X122.815 Y131.798 E.55028
G1 X122.278 Y131.798 E.01695
G1 X134.607 Y144.126 E.55028
G1 X134.07 Y144.126 E.01695
G1 X121.742 Y131.798 E.55026
G1 X121.205 Y131.798 E.01695
G1 X133.534 Y144.126 E.55028
G1 X132.997 Y144.126 E.01695
G1 X120.668 Y131.798 E.55028
G1 X120.131 Y131.798 E.01695
G1 X132.46 Y144.126 E.55028
G1 X131.923 Y144.126 E.01695
G1 X124.002 Y136.205 E.35355
G1 X124.201 Y136.792 E.01956
G1 X124.236 Y136.976 E.00591
G1 X131.386 Y144.126 E.31914
G1 X130.85 Y144.126 E.01692
G1 X124.328 Y137.605 E.29109
G1 X124.35 Y137.962 E.01129
G1 X124.338 Y138.152 E.00601
G1 X130.313 Y144.126 E.26667
G1 X129.776 Y144.126 E.01695
G1 X124.293 Y138.643 E.24473
G1 X124.208 Y139.095 E.01452
M73 Q2 S64
G1 X129.239 Y144.126 E.22456
G1 X128.702 Y144.126 E.01695
G1 X124.076 Y139.5 E.20648
G1 X123.93 Y139.891 E.01317
G1 X128.166 Y144.126 E.18905
G1 X127.629 Y144.126 E.01695
G1 X123.75 Y140.247 E.17314
G1 X123.545 Y140.58 E.01234
G1 X127.092 Y144.126 E.1583
G1 X126.555 Y144.126 E.01695
